X: 34660
T: Road To Buggleskelly, The
R: reel
M: 4/4
K: Dmajor
|:A2 (3cBA cdec|Ac (3cBA BFFB|A2 (3cBA cdeB|eBdc Acec|
A2 (3cBA cdec|Ac (3cBA BFFB|A2 (3cBA cdeB|e2 dB A4:|
=c3 G EcGE|EDBG dBGD|F2 dF F2 dF|G2 dG G2 dG|
=c3 G EcGE|EDBG dBGD|F2 dA ADEF|GBAF GABG|
=c3 G EcGE|EDBG dBGD|F2 dF F2 dF|G2 dG G2 dG|
=c3 G EcGE|EDBG dBGD|F2 dA FDEF|GBAF G4|

